public/icon/wallet.svg

<svg width="35" height="31" viewBox="0 0 35 31" fill="none" xmlns="http://www.w3.org/2000/svg">
<path fill-rule="evenodd" clip-rule="evenodd" d="M34.2712 27.1666C34.2712 29.1806 32.6393 30.8125 30.6253 30.8125H4.37533C2.36137 30.8125 0.729492 29.1806 0.729492 27.1666V6.0208C0.729492 4.41008 2.03543 3.10414 3.64616 3.10414H18.3542L24.2597 0.964763C24.6338 0.828409 25.0479 1.02164 25.1843 1.39424L25.8063 3.10414H28.4378C30.0486 3.10414 31.3545 4.41008 31.3545 6.0208V7.47914C32.9652 7.47914 34.2712 8.78508 34.2712 10.3958V27.1666ZM3.64616 4.56247C2.84116 4.56247 2.18783 5.2158 2.18783 6.0208C2.18783 6.8258 2.84116 7.47914 3.64616 7.47914H6.15814H6.29595C6.30543 7.47549 6.31126 7.46747 6.32074 7.46383L14.3285 4.56247H3.64616ZM24.8489 4.69445L24.0745 2.56237L22.5782 3.10414H22.5804L18.5598 4.56247H18.5525L10.5032 7.47914H25.861L24.8489 4.69445ZM29.8962 6.0208C29.8962 5.2158 29.2428 4.56247 28.4378 4.56247H26.3356L27.3958 7.47914H29.8962V6.0208ZM31.3545 8.93747H3.64616C3.11241 8.93747 2.61803 8.78362 2.18783 8.53278V27.1666C2.18783 28.3749 3.16783 29.3541 4.37533 29.3541H30.6253C31.8336 29.3541 32.8128 28.3749 32.8128 27.1666V22.0625H29.8962C28.2854 22.0625 26.9795 20.7565 26.9795 19.1458C26.9795 17.5351 28.2854 16.2291 29.8962 16.2291H32.8128V10.3958C32.8128 9.5908 32.1595 8.93747 31.3545 8.93747ZM32.8128 20.6041V17.6875H29.8962C29.0912 17.6875 28.4378 18.3408 28.4378 19.1458C28.4378 19.9508 29.0912 20.6041 29.8962 20.6041H32.8128ZM29.8962 18.4166H31.3545V19.875H29.8962V18.4166Z" fill="url(#paint0_linear_225_1324)"/>
<defs>
<linearGradient id="paint0_linear_225_1324" x1="0.729492" y1="15.8667" x2="34.2712" y2="15.8667" gradientUnits="userSpaceOnUse">
<stop stop-color="#3068D0"/>
<stop offset="0.5" stop-color="#836BAF"/>
<stop offset="1" stop-color="#978262"/>
</linearGradient>
</defs>
</svg>

<svg width="35" height="31" fill="none" xmlns="http://www.w3.org/2000/svg"><path fill-rule="evenodd" clip-rule="evenodd" d="M34.271 27.167a3.645 3.645 0 0 1-3.646 3.645H4.375A3.645 3.645 0 0 1 .73 27.168V6.02a2.917 2.917 0 0 1 2.917-2.917h14.708L24.26.964a.722.722 0 0 1 .924.43l.622 1.71h2.632a2.917 2.917 0 0 1 2.917 2.917v1.458a2.917 2.917 0 0 1 2.916 2.917v16.77ZM3.646 4.562a1.459 1.459 0 0 0 0 2.917h2.65c.01-.004.015-.012.025-.015l8.008-2.902H3.646Zm21.203.132-.774-2.132-1.497.542h.002l-4.02 1.458h-.008L10.503 7.48h15.358l-1.012-2.785Zm5.047 1.327c0-.805-.653-1.459-1.458-1.459h-2.102l1.06 2.917h2.5V6.021Zm1.459 2.916H3.646a2.884 2.884 0 0 1-1.458-.404v18.634c0 1.208.98 2.187 2.187 2.187h26.25c1.209 0 2.188-.98 2.188-2.187v-5.105h-2.917a2.917 2.917 0 0 1 0-5.833h2.917v-5.833c0-.805-.654-1.459-1.459-1.459Zm1.458 11.667v-2.916h-2.917a1.459 1.459 0 0 0 0 2.916h2.917Zm-2.917-2.187h1.459v1.458h-1.459v-1.458Z" fill="url(#a)"/><defs><linearGradient id="a" x1=".729" y1="15.867" x2="34.271" y2="15.867" gradientUnits="userSpaceOnUse"><stop stop-color="#3068D0"/><stop offset=".5" stop-color="#836BAF"/><stop offset="1" stop-color="#978262"/></linearGradient></defs></svg>
